X:1
T:Majesty, 66.66.88
T:Majesty, 66.66.88
T:Wesleyan Centenary Tune Book, 1839
T:Public Domain Courtesy of the Cyber Hymnal™
C:Wesleyan Centenary Tune Book, 1839
Z:Public Domain
Z:Courtesy of the Cyber Hymnal™
%%score ( 1 2 ) ( 3 4 )
L:1/8
Q:1/4=115
M:4/4
K:Ab
V:1 treble 
V:2 treble 
V:3 bass 
V:4 bass 
V:1
 E2 | [CA]2 [CA]2 [EA]2 [EB]2 | [Ec]6 [EA]2 | [Gd]2 [Ac]2 [Ac]2 BA | [GB]6 [EB]2 | %5
 [Ee]3 [Ed] cB[Ec][Fd] | c2 B2 A2 [DG]2 | [CA]2 GF [CE]2 [B,D]2 | C6 [CE]2 | FGFB [EA]2 GF | %10
 [B,E]4 d4 | [Ec][DB][Ec][Fd] [Ec]2 [DB]2 | [CA]6 [CE]2 | [Ec]4 [DB]4 | [CA]6 E2 | [Ee]4 [Ed]4 | %16
 [EA]6 [DE]2 | [CA]2 [CA]2 [CA]2 GA | [EB]2 [EB]2 [EB]2 [CA][EB] | [Ec]2 [Ec]2 [Ec]2 [EB][=DA] | %20
 [EB]2 [FB]2 [EB]2 cd | [Ee]4 [Ed]4 | [Ec][DB][Ec][Fd] [Ec]2 [DB]2 | [CA]4 [B,G]4 | [CA]6 |] %25
V:2
 E2 | x8 | x8 | x6 F2 | x8 | x4 E2 x2 | E6 x2 | x2 D2 x4 | C6 x2 | D2 D2 x B,2 x | x4 F2 E2 | x8 | %12
 x8 | x8 | x6 E2 | x8 | x8 | x6 E2 | x8 | x8 | x6 E2 | x8 | x8 | x8 | x6 |] %25
V:3
 E,2 | A,2 [A,,A,]2 [C,A,]2 [E,G,]2 | A,6 [A,C]2 | [E,B,]2 (A,[G,B,]) [F,C]2 [F,=D]2 | [E,E]6 G,2 | %5
 [C,A,]3 [B,,G,] [A,,A,]2 [A,,A,]2 | [A,,A,]2 [B,,G,]2 [C,A,]2 [E,B,]2 | %7
 [F,A,]2 [D,A,]2 [E,A,]2 [E,G,]2 | [A,,A,]6 [A,,A,]2 | A,F,B,G, (A,C) B,A, | %10
 [E,G,]4 [F,A,]2 [G,B,]2 | A,3 [D,A,] [E,A,]2 [E,G,]2 | [A,,A,]6 [A,,A,]2 | [A,,A,]4 [E,G,]4 | %14
 A,6 [A,C]2 | [A,C]4 [E,B,]4 | A,6 [E,G,]2 |!mp! [A,,E,]2 [A,,E,]2 E,2 [B,,E,][A,,F,] | %18
 [E,G,]2 [E,G,]2 [E,G,]2 A,G, | A,2 A,2 A,2 [G,B,] x | [E,G,]2 [=D,A,]2 [E,G,]2 [A,,A,][B,,G,] | %21
 [C,A,]4 [E,G,]4 | A,6 [D,F,]2 | E,4 E,4 | [A,,E,]6 |] %25
V:4
 E,2 | A,2 x6 | A,6 x2 | x8 | x6 (E,D,) | x8 | x8 | x8 | x8 | A,,2 B,,2 C,2 =D,2 | x8 | A,3 x5 | %12
 x8 | x8 | A,6 x2 | x8 | A,6 x2 | x4 (A,,C,) x2 | x6 E,2 | A,2 A,2 A,2 F, x | x8 | x8 | A,6 x2 | %23
 E,4 E,4 | x6 |] %25

